**kern	**silbe	**kern	**silbe	**kern	**harmony	**phrase	**leadinstrument	**rhyme	**timestamp	**harte
*ICvox	*	*ICvox	*	*ICbras	*M4/4	*	*	*	*	*M4/4
*VRlead	*	*VRharmonize	*	*	*	*	*	*	*	*
*Hstimme	*	*Nstimme	*	*Nstimme	*	*	*	*	*	*
*B-:	*	*B-:	*	*B-:	*B-:	*	*	*	*	*B-:
*M4/4	*	*M4/4	*	*M4/4	*	*	*	*	*	*
*clefG2	*	*clefG2	*	*clefG2	*	*	*	*	*	*
r;	.	r;	.	r;	1r;	.	r	.	0	N.C.
=1	=1	=1	=1	=1	=1	=1	=1	=1	=1	=1
*>Letter>A	*>Letter>A	*>Letter>A	*>Letter>A	*>Letter>A	*>Letter>A	*>Letter>A	*>Letter>A	*>Letter>A	*>Letter>A	*>Letter>A
*>Label>Intro	*>Label>Intro	*>Label>Intro	*>Label>Intro	*>Label>Intro	*>Label>Intro	*>Label>Intro	*>Label>Intro	*>Label>Intro	*>Label>Intro	*>Label>Intro
1r	.	1r	.	1r	2FM	newline	r	.	0.116	F:maj
.	.	.	.	.	2FMm	.	r	.	1.141	F:7
=2	=2	=2	=2	=2	=2	=2	=2	=2	=2	=2
1r	.	1r	.	1r	1B-M	newline	r	.	2.167	B-:maj
=3	=3	=3	=3	=3	=3	=3	=3	=3	=3	=3
1r	.	1r	.	1r	1B-M	.	r	.	4.306	B-:maj
=4	=4	=4	=4	=4	=4	=4	=4	=4	=4	=4
1r	.	1r	.	1r	1B-M	newline	r	.	6.445	B-:maj
=5	=5	=5	=5	=5	=5	=5	=5	=5	=5	=5
1r	.	1r	.	1r	1B-M	.	r	.	8.577	B-:maj
=6	=6	=6	=6	=6	=6	=6	=6	=6	=6	=6
*>Letter>B	*>Letter>B	*>Letter>B	*>Letter>B	*>Letter>B	*>Letter>B	*>Letter>B	*>Letter>B	*>Letter>B	*>Letter>B	*>Letter>B
*>Label>Verse	*>Label>Verse	*>Label>Verse	*>Label>Verse	*>Label>Verse	*>Label>Verse	*>Label>Verse	*>Label>Verse	*>Label>Verse	*>Label>Verse	*>Label>Verse
8d	Des-	1r	.	1r	1B-M	newline	voice	.	10.709	B-:maj
8d	-mond	.	.	.	.	.	.	.	.	.
8d	has	.	.	.	.	.	.	.	.	.
8d	a	.	.	.	.	.	.	.	.	.
8d	bar-	.	.	.	.	.	.	.	.	.
8d	-row	.	.	.	.	.	.	.	.	.
8c	in	.	.	.	.	.	.	.	.	.
8B-	the	.	.	.	.	.	.	.	.	.
=7	=7	=7	=7	=7	=7	=7	=7	=7	=7	=7
8A	mar-	1r	.	1r	1FMm	.	voice	.	12.88	F:7
8c	-ket	.	.	.	.	.	.	.	.	.
8r	.	.	.	.	.	.	.	.	.	.
4.c	place	.	.	.	.	.	.	A	.	.
8r	.	.	.	.	.	.	.	.	.	.
[8e-	Mo-	.	.	.	.	.	.	.	.	.
=8	=8	=8	=8	=8	=8	=8	=8	=8	=8	=8
8e-]	_	1r	.	1r	1FMm	newline	voice	.	15.051	F:7
8e-	-lly	.	.	.	.	.	.	.	.	.
8e-	is	.	.	.	.	.	.	.	.	.
8e-	the	.	.	.	.	.	.	.	.	.
8e-	sing-	.	.	.	.	.	.	.	.	.
8e-	-er	.	.	.	.	.	.	.	.	.
8d	in	.	.	.	.	.	.	.	.	.
8c	a	.	.	.	.	.	.	.	.	.
=9	=9	=9	=9	=9	=9	=9	=9	=9	=9	=9
4B-	band	1r	.	1r	1B-M	.	voice	B	17.165	B-:maj
4r	.	.	.	.	.	.	.	.	.	.
4r	.	.	.	.	.	.	.	.	.	.
8r	.	.	.	.	.	.	.	.	.	.
[8f	Des-	.	.	.	.	.	.	.	.	.
=10	=10	=10	=10	=10	=10	=10	=10	=10	=10	=10
8f]	_	1r	.	1r	1B-M	newline	voice	.	19.279	B-:maj
8f	-mond	.	.	.	.	.	.	.	.	.
8f	says	.	.	.	.	.	.	.	.	.
8f	to	.	.	.	.	.	.	.	.	.
8f	Mo-	.	.	.	.	.	.	.	.	.
8f	-lly	.	.	.	.	.	.	.	.	.
8e-	girl	.	.	.	.	.	.	.	.	.
8d	I	.	.	.	.	.	.	.	.	.
=11	=11	=11	=11	=11	=11	=11	=11	=11	=11	=11
8e-	like	1r	.	1r	1E-M	.	voice	.	21.403	E-:maj
8f	your	.	.	.	.	.	.	.	.	.
8r	.	.	.	.	.	.	.	.	.	.
4g	face	.	.	.	.	.	.	A	.	.
8g	and	.	.	.	.	.	.	.	.	.
8f	Mo-	.	.	.	.	.	.	.	.	.
8e-	-lly	.	.	.	.	.	.	.	.	.
=12	=12	=12	=12	=12	=12	=12	=12	=12	=12	=12
8d	says	1r	.	1r	2B-M	newline	voice	.	23.528	B-:maj
8d	this	.	.	.	.	.	.	.	.	.
8e-	as	.	.	.	.	.	.	.	.	.
8d	she	.	.	.	.	.	.	.	.	.
8c	takes	.	.	.	2FMm	.	voice	.	24.586	F:7
8e-	him	.	.	.	.	.	.	.	.	.
8d	by	.	.	.	.	.	.	.	.	.
16c	the	.	.	.	.	.	.	.	.	.
[16B-	hand	.	.	.	.	.	.	B	.	.
=13	=13	=13	=13	=13	=13	=13	=13	=13	=13	=13
4B-]	_	2r	.	1r	1B-M	.	voice	.	25.643	B-:maj
4r	.	.	.	.	.	.	.	.	.	.
8r	.	8r	.	.	.	.	.	.	.	.
8B-	Ob-	8B-	Ob-	.	.	.	.	.	.	.
8d	-la-	8d	-la-	.	.	.	.	.	.	.
8f	-di	8f	-di	.	.	.	.	.	.	.
=14	=14	=14	=14	=14	=14	=14	=14	=14	=14	=14
*>Letter>C	*>Letter>C	*>Letter>C	*>Letter>C	*>Letter>C	*>Letter>C	*>Letter>C	*>Letter>C	*>Letter>C	*>Letter>C	*>Letter>C
*>Label>Chorus	*>Label>Chorus	*>Label>Chorus	*>Label>Chorus	*>Label>Chorus	*>Label>Chorus	*>Label>Chorus	*>Label>Chorus	*>Label>Chorus	*>Label>Chorus	*>Label>Chorus
8r	.	8r	.	1r	1B-M	newline	voice	.	27.758	B-:maj
8B-	Ob-	8B-	Ob-	.	.	.	.	.	.	.
8d	-la-	8d	-la-	.	.	.	.	c	.	.
8f	-da	8f	-da	.	.	.	.	C	.	.
8r	.	8r	.	.	.	.	.	.	.	.
8B-	Life	8B-	Life	.	.	.	.	.	.	.
8d	goes	8d	goes	.	.	.	.	.	.	.
[8f	on	[8f	on	.	.	.	.	C	.	.
=15	=15	=15	=15	=15	=15	=15	=15	=15	=15	=15
4.f]	_	4.f]	_	1r	2Dm	.	voice	.	29.879	D:min/b3
4.b-	bra	4.b-	bra	.	.	.	.	C	.	.
.	.	.	.	.	2Gm	.	voice	.	30.939	G:min
8r	.	8r	.	.	.	.	.	.	.	.
[8f	La	[8f	La	.	.	.	.	C	.	.
=16	=16	=16	=16	=16	=16	=16	=16	=16	=16	=16
8f]	_	8f]	_	1r	2B-M	newline	voice	.	32	B-:maj
16e-	la	16e-	la	.	.	.	.	c	.	.
16d	_	16d	_	.	.	.	.	.	.	.
8d	how	8d	how	.	.	.	.	.	.	.
8e-	the	8e-	the	.	.	.	.	.	.	.
8d	life	8d	life	.	2FM	.	voice	.	33.08	F:maj
8c	goes	8c	goes	.	.	.	.	.	.	.
8B-	_	8B-	_	.	.	.	.	.	.	.
[8B-	on	[8B-	on	.	.	.	.	C	.	.
=17	=17	=17	=17	=17	=17	=17	=17	=17	=17	=17
8B-]	_	8B-]	_	1r	1B-M	.	voice	.	34.159	B-:maj
8r	.	8r	.	.	.	.	.	.	.	.
4r	.	4r	.	.	.	.	.	.	.	.
8r	.	8r	.	.	.	.	.	.	.	.
8B-	Ob-	8B-	Ob-	.	.	.	.	.	.	.
8d	-la-	8d	-la-	.	.	.	.	c	.	.
8f	-di	8f	-di	.	.	.	.	.	.	.
=18	=18	=18	=18	=18	=18	=18	=18	=18	=18	=18
8r	.	8r	.	1r	1B-M	newline	voice	.	36.319	B-:maj
8B-	Ob-	8B-	Ob-	.	.	.	.	.	.	.
8d	-la-	8d	-la-	.	.	.	.	c	.	.
8f	-da	8f	-da	.	.	.	.	C	.	.
8r	.	8r	.	.	.	.	.	.	.	.
8B-	Life	8B-	Life	.	.	.	.	.	.	.
8d	goes	8d	goes	.	.	.	.	.	.	.
[8f	on	[8f	on	.	.	.	.	C	.	.
=19	=19	=19	=19	=19	=19	=19	=19	=19	=19	=19
4.f]	_	4.f]	_	1r	2Dm	.	voice	.	38.418	D:min/b3
4b-	bra	4b-	bra	.	.	.	.	C	.	.
.	.	.	.	.	2Gm	.	voice	.	39.468	G:min
8r	.	8r	.	.	.	.	.	.	.	.
8r	.	8r	.	.	.	.	.	.	.	.
[8f	La	[8f	La	.	.	.	.	C	.	.
=20	=20	=20	=20	=20	=20	=20	=20	=20	=20	=20
8f]	_	8f]	_	1r	2B-M	newline	voice	.	40.518	B-:maj
16e-	la	16e-	la	.	.	.	.	c	.	.
16d	_	16d	_	.	.	.	.	.	.	.
8d	how	8d	how	.	.	.	.	.	.	.
8e-	the	8e-	the	.	.	.	.	.	.	.
8d	life	8d	life	.	2FM	.	voice	.	41.565	F:maj
8c	goes	8c	goes	.	.	.	.	.	.	.
8B-	_	8B-	_	.	.	.	.	.	.	.
[8B-	on	[8B-	on	.	.	.	.	C	.	.
=21	=21	=21	=21	=21	=21	=21	=21	=21	=21	=21
8B-]	_	8B-]	_	1r	1B-M	.	voice	.	42.611	B-:maj
8r	.	8r	.	.	.	.	.	.	.	.
4r	.	4r	.	.	.	.	.	.	.	.
2r	.	2r	.	.	.	.	.	.	.	.
=22	=22	=22	=22	=22	=22	=22	=22	=22	=22	=22
*>Letter>B	*>Letter>B	*>Letter>B	*>Letter>B	*>Letter>B	*>Letter>B	*>Letter>B	*>Letter>B	*>Letter>B	*>Letter>B	*>Letter>B
*>Label>Verse	*>Label>Verse	*>Label>Verse	*>Label>Verse	*>Label>Verse	*>Label>Verse	*>Label>Verse	*>Label>Verse	*>Label>Verse	*>Label>Verse	*>Label>Verse
8d	Des-	1r	.	1r	1B-M	newline	voice	.	44.705	B-:maj
8d	-mond	.	.	.	.	.	.	.	.	.
8d	takes	.	.	.	.	.	.	.	.	.
8d	a	.	.	.	.	.	.	.	.	.
8d	tro-	.	.	.	.	.	.	.	.	.
8d	-lly	.	.	.	.	.	.	.	.	.
8c	to	.	.	.	.	.	.	.	.	.
8B-	the	.	.	.	.	.	.	.	.	.
=23	=23	=23	=23	=23	=23	=23	=23	=23	=23	=23
8A	jewel-	1r	.	1r	1FMm	.	voice	.	46.811	F:7
4c	-lers	.	.	.	.	.	.	.	.	.
4c	store	.	.	.	.	.	.	D	.	.
8r	.	.	.	.	.	.	.	.	.	.
8r	.	.	.	.	.	.	.	.	.	.
[8e-	Buys	.	.	.	.	.	.	.	.	.
=24	=24	=24	=24	=24	=24	=24	=24	=24	=24	=24
8e-]	_	1r	.	1r	1FMm	newline	voice	.	48.918	F:7
8e-	a	.	.	.	.	.	.	.	.	.
8e-	twen-	.	.	.	.	.	.	.	.	.
8e-	-ty	.	.	.	.	.	.	.	.	.
8e-	ca-	.	.	.	.	.	.	.	.	.
8e-	-rat	.	.	.	.	.	.	.	.	.
8d	gol-	.	.	.	.	.	.	.	.	.
8c	-den	.	.	.	.	.	.	.	.	.
=25	=25	=25	=25	=25	=25	=25	=25	=25	=25	=25
4B-	ring	1r	.	1r	1B-M	.	voice	E	50.994	B-:maj
8r	.	.	.	.	.	.	.	.	.	.
4b-	Ring	.	.	.	.	.	.	E	.	.
8r	.	.	.	.	.	.	.	.	.	.
8r	.	.	.	.	.	.	.	.	.	.
[8f	Takes	.	.	.	.	.	.	.	.	.
=26	=26	=26	=26	=26	=26	=26	=26	=26	=26	=26
8f]	_	1r	.	1r	1B-M	newline	voice	.	53.07	B-:maj
8f	it	.	.	.	.	.	.	.	.	.
8f	back	.	.	.	.	.	.	.	.	.
8f	to	.	.	.	.	.	.	.	.	.
8f	Mo-	.	.	.	.	.	.	.	.	.
8f	-lly	.	.	.	.	.	.	.	.	.
8e-	wait-	.	.	.	.	.	.	.	.	.
8d	-ing	.	.	.	.	.	.	.	.	.
=27	=27	=27	=27	=27	=27	=27	=27	=27	=27	=27
8e-	at	1r	.	1r	1E-M	.	voice	.	55.187	E-:maj
8f	the	.	.	.	.	.	.	.	.	.
8r	.	.	.	.	.	.	.	.	.	.
4g	door	.	.	.	.	.	.	D	.	.
8g	And	.	.	.	.	.	.	.	.	.
8f	as	.	.	.	.	.	.	.	.	.
8e-	he	.	.	.	.	.	.	.	.	.
=28	=28	=28	=28	=28	=28	=28	=28	=28	=28	=28
8d	gives	1r	.	1r	2B-M	newline	voice	.	57.304	B-:maj
8d	it	.	.	.	.	.	.	.	.	.
8e-	to	.	.	.	.	.	.	.	.	.
8d	her	.	.	.	.	.	.	.	.	.
8c	she	.	.	.	2FMm	.	voice	.	58.368	F:7
16e-	be-	.	.	.	.	.	.	.	.	.
8.d	-gins	.	.	.	.	.	.	.	.	.
8c	to	.	.	.	.	.	.	.	.	.
=29	=29	=29	=29	=29	=29	=29	=29	=29	=29	=29
8B-	sing	2r	.	1r	1B-M	.	voice	E	59.431	B-:maj
8r	.	.	.	.	.	.	.	.	.	.
8r	.	.	.	.	.	.	.	.	.	.
8b-	sing	.	.	.	.	.	.	E	.	.
8r	.	8r	.	.	.	.	.	.	.	.
8B-	Ob-	8B-	Ob-	.	.	.	.	.	.	.
8d	-la-	8d	-la-	.	.	.	.	c	.	.
8f	-di	8f	-di	.	.	.	.	.	.	.
=30	=30	=30	=30	=30	=30	=30	=30	=30	=30	=30
*>Letter>C	*>Letter>C	*>Letter>C	*>Letter>C	*>Letter>C	*>Letter>C	*>Letter>C	*>Letter>C	*>Letter>C	*>Letter>C	*>Letter>C
*>Label>Chorus	*>Label>Chorus	*>Label>Chorus	*>Label>Chorus	*>Label>Chorus	*>Label>Chorus	*>Label>Chorus	*>Label>Chorus	*>Label>Chorus	*>Label>Chorus	*>Label>Chorus
8r	.	8r	.	1r	1B-M	newline	voice	.	61.558	B-:maj
8B-	Ob-	8B-	Ob-	.	.	.	.	.	.	.
8d	-la-	8d	-la-	.	.	.	.	c	.	.
8f	-da	8f	-da	.	.	.	.	C	.	.
8r	.	8r	.	.	.	.	.	.	.	.
8B-	Life	8B-	Life	.	.	.	.	.	.	.
8d	goes	8d	goes	.	.	.	.	.	.	.
[8f	on	[8f	on	.	.	.	.	C	.	.
=31	=31	=31	=31	=31	=31	=31	=31	=31	=31	=31
4.f]	_	4.f]	_	1r	2Dm	.	voice	.	63.647	D:min/b3
4.b-	bra	4.b-	bra	.	.	.	.	C	.	.
.	.	.	.	.	2Gm	.	voice	.	64.692	G:min
8r	.	8r	.	.	.	.	.	.	.	.
[8f	La	[8f	La	.	.	.	.	C	.	.
=32	=32	=32	=32	=32	=32	=32	=32	=32	=32	=32
8f]	_	8f]	_	1r	2B-M	newline	voice	.	65.736	B-:maj
16e-	la	16e-	la	.	.	.	.	c	.	.
16d	_	16d	_	.	.	.	.	.	.	.
8d	how	8d	how	.	.	.	.	.	.	.
8e-	the	8e-	the	.	.	.	.	.	.	.
8d	life	8d	life	.	2FM	.	voice	.	66.8	F:maj
8c	goes	8c	goes	.	.	.	.	.	.	.
8B-	_	8B-	_	.	.	.	.	.	.	.
[8B-	on	[8B-	on	.	.	.	.	C	.	.
=33	=33	=33	=33	=33	=33	=33	=33	=33	=33	=33
8B-]	_	8B-]	_	1r	1B-M	.	voice	.	67.863	B-:maj
8r	.	8r	.	.	.	.	.	.	.	.
4r	.	4r	.	.	.	.	.	.	.	.
8r	.	8r	.	.	.	.	.	.	.	.
8B-	Ob-	8B-	Ob-	.	.	.	.	.	.	.
8d	-la-	8d	-la-	.	.	.	.	c	.	.
8f	-di	8f	-di	.	.	.	.	.	.	.
=34	=34	=34	=34	=34	=34	=34	=34	=34	=34	=34
8r	.	8r	.	1r	1B-M	newline	voice	.	69.991	B-:maj
8B-	Ob-	8B-	Ob-	.	.	.	.	.	.	.
8d	-la-	8d	-la-	.	.	.	.	c	.	.
8f	-da	8f	-da	.	.	.	.	C	.	.
8r	.	8r	.	.	.	.	.	.	.	.
8B-	Life	8B-	Life	.	.	.	.	.	.	.
8d	goes	8d	goes	.	.	.	.	.	.	.
[8f	on	[8f	on	.	.	.	.	C	.	.
=35	=35	=35	=35	=35	=35	=35	=35	=35	=35	=35
4.f]	_	4.f]	_	1r	2Dm	.	voice	.	72.103	D:min/b3
4b-	bra	4b-	bra	.	.	.	.	C	.	.
.	.	.	.	.	2Gm	.	voice	.	73.16	G:min
8r	.	8r	.	.	.	.	.	.	.	.
8r	.	8r	.	.	.	.	.	.	.	.
[8f	La	[8f	La	.	.	.	.	C	.	.
=36	=36	=36	=36	=36	=36	=36	=36	=36	=36	=36
8f]	_	8f]	_	1r	2B-M	newline	voice	.	74.216	B-:maj
16e-	la	16e-	la	.	.	.	.	c	.	.
16d	_	16d	_	.	.	.	.	.	.	.
8d	how	8d	how	.	.	.	.	.	.	.
8e-	the	8e-	the	.	.	.	.	.	.	.
8d	life	8d	life	.	2FM	.	voice	.	75.272	F:maj
8c	goes	8c	goes	.	.	.	.	.	.	.
8B-	_	8B-	_	.	.	.	.	.	.	.
[8B-	on	[8B-	on	.	.	.	.	C	.	.
=37	=37	=37	=37	=37	=37	=37	=37	=37	=37	=37
8B-]	_	8B-]	_	1r	1B-M	.	voice	.	76.328	B-:maj
8r	.	8r	.	.	.	.	.	.	.	.
4r	.	4r	.	.	.	.	.	.	.	.
8r	.	2r	.	.	.	.	.	.	.	.
16d	yeah	.	.	.	.	.	.	.	.	.
16c	_	.	.	.	.	.	.	.	.	.
8B-	_	.	.	.	.	.	.	.	.	.
8r	.	.	.	.	.	.	.	.	.	.
=38	=38	=38	=38	=38	=38	=38	=38	=38	=38	=38
*>Letter>D	*>Letter>D	*>Letter>D	*>Letter>D	*>Letter>D	*>Letter>D	*>Letter>D	*>Letter>D	*>Letter>D	*>Letter>D	*>Letter>D
*>Label>Bridge	*>Label>Bridge	*>Label>Bridge	*>Label>Bridge	*>Label>Bridge	*>Label>Bridge	*>Label>Bridge	*>Label>Bridge	*>Label>Bridge	*>Label>Bridge	*>Label>Bridge
8r	.	1r	.	1r	1E-M	newline	voice	.	78.44	E-:maj
16B-	In	.	.	.	.	.	.	.	.	.
16B-	a	.	.	.	.	.	.	.	.	.
16e-	cou-	.	.	.	.	.	.	.	.	.
16e-	-ple	.	.	.	.	.	.	.	.	.
8f	of	.	.	.	.	.	.	.	.	.
4g	years	.	.	.	.	.	.	.	.	.
8f	they	.	.	.	.	.	.	.	.	.
8g	have	.	.	.	.	.	.	.	.	.
=39	=39	=39	=39	=39	=39	=39	=39	=39	=39	=39
8b-	built	1r	.	1r	1E-M	.	voice	.	80.549	E-:maj
8r	.	.	.	.	.	.	.	.	.	.
8e-	a	.	.	.	.	.	.	.	.	.
8g	home	.	.	.	.	.	.	F	.	.
8r	.	.	.	.	.	.	.	.	.	.
4B-	sweet	.	.	.	.	.	.	.	.	.
8d	home	.	.	.	.	.	.	F	.	.
=40	=40	=40	=40	=40	=40	=40	=40	=40	=40	=40
1r	.	1r	.	8d	2B-M	newline	voice	.	82.658	B-:maj
.	.	.	.	4d	.	.	.	.	.	.
.	.	.	.	8d	.	.	.	.	.	.
.	.	.	.	8c	2B-M	.	voice	.	83.706	B-:sus4(9)
.	.	.	.	4c	.	.	.	.	.	.
.	.	.	.	8c	.	.	.	.	.	.
=41	=41	=41	=41	=41	=41	=41	=41	=41	=41	=41
1r	.	1r	.	8B-	2B-M	.	voice	.	84.754	B-:maj
.	.	.	.	4B-	.	.	.	.	.	.
.	.	.	.	8B-	.	.	.	.	.	.
.	.	.	.	8A-	2B-Mm	.	voice	.	85.802	B-:9
.	.	.	.	4A-	.	.	.	.	.	.
.	.	.	.	8A-	.	.	.	.	.	.
=42	=42	=42	=42	=42	=42	=42	=42	=42	=42	=42
8r	.	1r	.	1G	1E-M	newline	voice	.	86.85	E-:maj
16B-	With	.	.	.	.	.	.	.	.	.
16B-	a	.	.	.	.	.	.	.	.	.
16e-	cou-	.	.	.	.	.	.	.	.	.
16e-	-ple	.	.	.	.	.	.	.	.	.
8f	of	.	.	.	.	.	.	.	.	.
8g	kids	.	.	.	.	.	.	.	.	.
8r	.	.	.	.	.	.	.	.	.	.
8f	run-	.	.	.	.	.	.	.	.	.
8g	-ning	.	.	.	.	.	.	.	.	.
=43	=43	=43	=43	=43	=43	=43	=43	=43	=43	=43
8b-	in	1r	.	1r	1E-M	.	voice	.	88.955	E-:maj
8r	.	.	.	.	.	.	.	.	.	.
8e-	the	.	.	.	.	.	.	.	.	.
4g	yard	.	.	.	.	.	.	.	.	.
8r	.	.	.	.	.	.	.	.	.	.
8r	.	.	.	.	.	.	.	.	.	.
8B-	Of	.	.	.	.	.	.	.	.	.
=44	=44	=44	=44	=44	=44	=44	=44	=44	=44	=44
8d	Des-	1r	.	1r	1B-M	newline	voice	.	91.06	B-:maj/5
8d	-mond	.	.	.	.	.	.	.	.	.
8d	and	.	.	.	.	.	.	.	.	.
4e-	Mo-	.	.	.	.	.	.	.	.	.
4d	-lly	.	.	.	.	.	.	.	.	.
8d	Jones	.	.	.	.	.	.	F	.	.
=45	=45	=45	=45	=45	=45	=45	=45	=45	=45	=45
4c	_	1r	.	1r	1FMm	.	voice	.	93.179	F:7
4r	.	.	.	.	.	.	.	.	.	.
2r	.	.	.	.	.	.	.	.	.	.
=46	=46	=46	=46	=46	=46	=46	=46	=46	=46	=46
*>Letter>B	*>Letter>B	*>Letter>B	*>Letter>B	*>Letter>B	*>Letter>B	*>Letter>B	*>Letter>B	*>Letter>B	*>Letter>B	*>Letter>B
*>Label>Verse	*>Label>Verse	*>Label>Verse	*>Label>Verse	*>Label>Verse	*>Label>Verse	*>Label>Verse	*>Label>Verse	*>Label>Verse	*>Label>Verse	*>Label>Verse
8d	Ha-	1r	.	1r	1B-M	newline	voice	.	95.298	B-:maj
8d	-ppy	.	.	.	.	.	.	.	.	.
8d	e-	.	.	.	.	.	.	.	.	.
8d	-ver	.	.	.	.	.	.	.	.	.
8d	af-	.	.	.	.	.	.	.	.	.
8d	-ter	.	.	.	.	.	.	.	.	.
8c	in	.	.	.	.	.	.	.	.	.
8B-	the	.	.	.	.	.	.	.	.	.
=47	=47	=47	=47	=47	=47	=47	=47	=47	=47	=47
8A	mar-	1r	.	1r	1FMm	.	voice	.	97.421	F:7
8c	-ket	.	.	.	.	.	.	.	.	.
8r	.	.	.	.	.	.	.	.	.	.
4.c	place	.	.	.	.	.	.	A	.	.
8r	.	.	.	.	.	.	.	.	.	.
[8e-	Des-	.	.	.	.	.	.	.	.	.
=48	=48	=48	=48	=48	=48	=48	=48	=48	=48	=48
8e-]	_	1r	.	1r	1FMm	newline	voice	.	99.545	F:7
8e-	-mond	.	.	.	.	.	.	.	.	.
8e-	lets	.	.	.	.	.	.	.	.	.
8e-	the	.	.	.	.	.	.	.	.	.
8e-	chil-	.	.	.	.	.	.	.	.	.
8e-	-dren	.	.	.	.	.	.	.	.	.
8d	lend	.	.	.	.	.	.	.	.	.
8c	a	.	.	.	.	.	.	.	.	.
=49	=49	=49	=49	=49	=49	=49	=49	=49	=49	=49
4B-	hand	1r	.	1r	1B-M	.	voice	B	101.648	B-:maj
4r	.	.	.	.	.	.	.	.	.	.
4r	.	.	.	.	.	.	.	.	.	.
8r	.	.	.	.	.	.	.	.	.	.
[8f	Mo-	.	.	.	.	.	.	.	.	.
=50	=50	=50	=50	=50	=50	=50	=50	=50	=50	=50
8f]	_	1r	.	1r	1B-M	newline	voice	.	103.751	B-:maj
8f	-lly	.	.	.	.	.	.	.	.	.
8f	stays	.	.	.	.	.	.	.	.	.
8f	at	.	.	.	.	.	.	.	.	.
8f	home	.	.	.	.	.	.	.	.	.
8f	and	.	.	.	.	.	.	.	.	.
8e-	does	.	.	.	.	.	.	.	.	.
8d	her	.	.	.	.	.	.	.	.	.
=51	=51	=51	=51	=51	=51	=51	=51	=51	=51	=51
8e-	pre-	1r	.	1r	1E-M	.	voice	.	105.845	E-:maj
8f	-tty	.	.	.	.	.	.	.	.	.
8r	.	.	.	.	.	.	.	.	.	.
4g	face	.	.	.	.	.	.	A	.	.
8g	And	.	.	.	.	.	.	.	.	.
8f	in	.	.	.	.	.	.	.	.	.
8e-	the	.	.	.	.	.	.	.	.	.
=52	=52	=52	=52	=52	=52	=52	=52	=52	=52	=52
8d	eve-	1r	.	1r	2B-M	newline	voice	.	107.938	B-:maj
8d	-ning	.	.	.	.	.	.	.	.	.
8e-	she	.	.	.	.	.	.	.	.	.
8d	still	.	.	.	.	.	.	.	.	.
8c	sing-	.	.	.	2FMm	.	voice	.	109.013	F:7
8e-	-ing	.	.	.	.	.	.	.	.	.
8d	with	.	.	.	.	.	.	.	.	.
16c	the	.	.	.	.	.	.	.	.	.
[16B-	band	.	.	.	.	.	.	B	.	.
=53	=53	=53	=53	=53	=53	=53	=53	=53	=53	=53
4B-]	_	2r	.	8r	1B-M	.	voice	.	110.088	B-:maj
.	.	.	.	8B-	.	.	.	.	.	.
8r	.	.	.	4d	.	.	.	.	.	.
4f	Yes!	.	.	.	.	.	.	.	.	.
.	.	8r	.	8f	.	.	.	.	.	.
8f	Oob-	8B-	Ob-	4g	.	.	.	.	.	.
8f	-la-	8d	-la-	.	.	.	.	c	.	.
8f	-di	8f	-di	[8b-	.	.	.	.	.	.
=54	=54	=54	=54	=54	=54	=54	=54	=54	=54	=54
*>Letter>C	*>Letter>C	*>Letter>C	*>Letter>C	*>Letter>C	*>Letter>C	*>Letter>C	*>Letter>C	*>Letter>C	*>Letter>C	*>Letter>C
*>Label>Chorus	*>Label>Chorus	*>Label>Chorus	*>Label>Chorus	*>Label>Chorus	*>Label>Chorus	*>Label>Chorus	*>Label>Chorus	*>Label>Chorus	*>Label>Chorus	*>Label>Chorus
8r	.	8r	.	8b-]	1B-M	newline	voice	.	112.238	B-:maj
8B-	Ob-	8B-	Ob-	8b-	.	.	.	.	.	.
8d	-la-	8d	-la-	4cc	.	.	.	c	.	.
8f	-da	8f	-da	.	.	.	.	C	.	.
8r	.	8r	.	8dd	.	.	.	.	.	.
8B-	Life	8B-	Life	8b-	.	.	.	.	.	.
8d	goes	8d	goes	8r	.	.	.	.	.	.
[8f	on	[8f	on	[8cc	.	.	.	C	.	.
=55	=55	=55	=55	=55	=55	=55	=55	=55	=55	=55
4.f]	_	4.f]	_	8cc]	2Dm	.	voice	.	113.669	D:min/b3
.	.	.	.	8b-	.	.	.	.	.	.
.	.	.	.	4a	.	.	.	.	.	.
4b-	bra	4.b-	bra	.	.	.	.	C	.	.
.	.	.	.	8b-	2Gm	.	voice	.	115.1	G:min
8r	.	.	.	8g	.	.	.	.	.	.
8r	.	8r	.	8r	.	.	.	.	.	.
[8f	La	[8f	La	[8B-	.	.	.	C	.	.
=56	=56	=56	=56	=56	=56	=56	=56	=56	=56	=56
8f]	_	8f]	_	8B-]	2B-M	newline	voice	.	116.531	B-:maj
16e-	la	16e-	la	8B-	.	.	.	c	.	.
16d	_	16d	_	.	.	.	.	.	.	.
8d	how	8d	how	4d	.	.	.	.	.	.
8e-	the	8e-	the	.	.	.	.	.	.	.
8d	life	8d	life	8f	2FM	.	voice	.	117.597	F:maj
8c	goes	8c	goes	8f	.	.	.	.	.	.
8B-	_	8B-	_	8r	.	.	.	.	.	.
[8B-	on	[8B-	on	8B-	.	.	.	C	.	.
=57	=57	=57	=57	=57	=57	=57	=57	=57	=57	=57
8B-]	_	8B-]	_	8r	1B-M	.	voice	.	118.664	B-:maj
8r	.	8r	.	8B-	.	.	.	.	.	.
8r	.	4r	.	4d	.	.	.	.	.	.
4f	Hey	.	.	.	.	.	.	.	.	.
.	.	8r	.	8f	.	.	.	.	.	.
8f	Ob-	8B-	Ob-	4g	.	.	.	.	.	.
8f	-la-	8d	-la-	.	.	.	.	c	.	.
8f	-di	8f	-di	[8b-	.	.	.	.	.	.
=58	=58	=58	=58	=58	=58	=58	=58	=58	=58	=58
8r	.	8r	.	8b-]	1B-M	newline	voice	.	120.796	B-:maj
8B-	Ob-	8B-	Ob-	8b-	.	.	.	.	.	.
8d	-la-	8d	-la-	4cc	.	.	.	c	.	.
8f	-da	8f	-da	.	.	.	.	C	.	.
8r	.	8r	.	8dd	.	.	.	.	.	.
8B-	Life	8B-	Life	8b-	.	.	.	.	.	.
8d	goes	8d	goes	8r	.	.	.	.	.	.
[8f	on	[8f	on	[8cc	.	.	.	C	.	.
=59	=59	=59	=59	=59	=59	=59	=59	=59	=59	=59
4.f]	_	4.f]	_	8cc]	2Dm	.	voice	.	122.203	D:min/b3
.	.	.	.	8b-	.	.	.	.	.	.
.	.	.	.	4a	.	.	.	.	.	.
4b-	bra	4b-	bra	.	.	.	.	C	.	.
.	.	.	.	8b-	2Gm	.	voice	.	123.61	G:min
8r	.	8r	.	8g	.	.	.	.	.	.
8r	.	8r	.	8r	.	.	.	.	.	.
[8f	La	[8f	La	[8B-	.	.	.	C	.	.
=60	=60	=60	=60	=60	=60	=60	=60	=60	=60	=60
8f]	_	8f]	_	8B-]	2B-M	newline	voice	.	125.017	B-:maj
16e-	la	16e-	la	8B-	.	.	.	c	.	.
16d	_	16d	_	.	.	.	.	.	.	.
8d	how	8d	how	4d	.	.	.	.	.	.
8e-	the	8e-	the	.	.	.	.	.	.	.
8d	life	8d	life	8f	2FM	.	voice	.	126.078	F:maj
8c	goes	8c	goes	8f	.	.	.	.	.	.
8B-	_	8B-	_	8r	.	.	.	.	.	.
[8B-	on	[8B-	on	8B-	.	.	.	C	.	.
=61	=61	=61	=61	=61	=61	=61	=61	=61	=61	=61
8B-]	_	8B-]	_	1r	1B-M	.	voice	.	127.14	B-:maj
8r	.	8r	.	.	.	.	.	.	.	.
4r	.	4r	.	.	.	.	.	.	.	.
2r	.	2r	.	.	.	.	.	.	.	.
=62	=62	=62	=62	=62	=62	=62	=62	=62	=62	=62
*>Letter>D	*>Letter>D	*>Letter>D	*>Letter>D	*>Letter>D	*>Letter>D	*>Letter>D	*>Letter>D	*>Letter>D	*>Letter>D	*>Letter>D
*>Label>Bridge	*>Label>Bridge	*>Label>Bridge	*>Label>Bridge	*>Label>Bridge	*>Label>Bridge	*>Label>Bridge	*>Label>Bridge	*>Label>Bridge	*>Label>Bridge	*>Label>Bridge
8r	.	1r	.	1r	1E-M	newline	voice	.	129.262	E-:maj
16B-	In	.	.	.	.	.	.	.	.	.
16B-	a	.	.	.	.	.	.	.	.	.
16e-	cou-	.	.	.	.	.	.	.	.	.
16e-	-ple	.	.	.	.	.	.	.	.	.
8f	of	.	.	.	.	.	.	.	.	.
4g	years	.	.	.	.	.	.	.	.	.
8f	they	.	.	.	.	.	.	.	.	.
8g	have	.	.	.	.	.	.	.	.	.
=63	=63	=63	=63	=63	=63	=63	=63	=63	=63	=63
8b-	built	1r	.	1r	1E-M	.	voice	.	131.371	E-:maj
8r	.	.	.	.	.	.	.	.	.	.
8e-	a	.	.	.	.	.	.	.	.	.
8g	home	.	.	.	.	.	.	F	.	.
8r	.	.	.	.	.	.	.	.	.	.
4B-	sweet	.	.	.	.	.	.	.	.	.
8d	home	.	.	.	.	.	.	F	.	.
=64	=64	=64	=64	=64	=64	=64	=64	=64	=64	=64
1r	.	1r	.	8d	2B-M	newline	voice	.	133.48	B-:maj
.	.	.	.	4d	.	.	.	.	.	.
.	.	.	.	8d	.	.	.	.	.	.
.	.	.	.	8c	2B-M	.	voice	.	134.554	B-:sus4(9)
.	.	.	.	4c	.	.	.	.	.	.
.	.	.	.	8c	.	.	.	.	.	.
=65	=65	=65	=65	=65	=65	=65	=65	=65	=65	=65
1r	.	1r	.	8B-	2B-M	.	voice	.	135.627	B-:maj
.	.	.	.	4B-	.	.	.	.	.	.
.	.	.	.	8B-	.	.	.	.	.	.
.	.	.	.	8A-	2B-Mm	.	voice	.	136.701	B-:9
.	.	.	.	4A-	.	.	.	.	.	.
.	.	.	.	8A-	.	.	.	.	.	.
=66	=66	=66	=66	=66	=66	=66	=66	=66	=66	=66
8r	.	1r	.	1G	1E-M	newline	voice	.	137.775	E-:maj
16B-	With	.	.	.	.	.	.	.	.	.
16B-	a	.	.	.	.	.	.	.	.	.
16e-	cou-	.	.	.	.	.	.	.	.	.
16e-	-ple	.	.	.	.	.	.	.	.	.
8f	of	.	.	.	.	.	.	.	.	.
8g	kids	.	.	.	.	.	.	.	.	.
8r	.	.	.	.	.	.	.	.	.	.
8f	run-	.	.	.	.	.	.	.	.	.
8g	-ning	.	.	.	.	.	.	.	.	.
=67	=67	=67	=67	=67	=67	=67	=67	=67	=67	=67
8b-	in	1r	.	1r	1E-M	.	voice	.	139.873	E-:maj
8r	.	.	.	.	.	.	.	.	.	.
8e-	the	.	.	.	.	.	.	.	.	.
4g	yard	.	.	.	.	.	.	.	.	.
8r	.	.	.	.	.	.	.	.	.	.
8r	.	.	.	.	.	.	.	.	.	.
8B-	Of	.	.	.	.	.	.	.	.	.
=68	=68	=68	=68	=68	=68	=68	=68	=68	=68	=68
8d	Des-	1r	.	8r	1B-M	newline	voice	.	141.97	B-:maj/5
8d	-mond	.	.	8cc	.	.	.	.	.	.
8d	and	.	.	8b-	.	.	.	.	.	.
4e-	Mo-	.	.	8a	.	.	.	.	.	.
.	.	.	.	8g	.	.	.	.	.	.
4d	-lly	.	.	8f	.	.	.	.	.	.
.	.	.	.	8e-	.	.	.	.	.	.
16d	Jones	.	.	8d	.	.	.	F	.	.
16e-	_	.	.	.	.	.	.	.	.	.
=69	=69	=69	=69	=69	=69	=69	=69	=69	=69	=69
8d	_	1r	.	8c	1FMm	.	voice	.	144.058	F:7
4.c	_	.	.	8B-	.	.	.	.	.	.
.	.	.	.	8A	.	.	.	.	.	.
.	.	.	.	8G	.	.	.	.	.	.
8r	.	.	.	8F	.	.	.	.	.	.
8f	Hey	.	.	8E-	.	.	.	.	.	.
8c	_	.	.	8D	.	.	.	.	.	.
8d	Hap-	.	.	8C	.	.	.	.	.	.
=70	=70	=70	=70	=70	=70	=70	=70	=70	=70	=70
*>Letter>B	*>Letter>B	*>Letter>B	*>Letter>B	*>Letter>B	*>Letter>B	*>Letter>B	*>Letter>B	*>Letter>B	*>Letter>B	*>Letter>B
*>Label>Verse	*>Label>Verse	*>Label>Verse	*>Label>Verse	*>Label>Verse	*>Label>Verse	*>Label>Verse	*>Label>Verse	*>Label>Verse	*>Label>Verse	*>Label>Verse
8r	.	1r	.	4BB-	1B-M	newline	voice	.	146.145	B-:maj
8d	-py	.	.	.	.	.	.	.	.	.
8d	e-	.	.	4r	.	.	.	.	.	.
8d	-ver	.	.	.	.	.	.	.	.	.
8d	af-	.	.	2r	.	.	.	.	.	.
8d	-ter	.	.	.	.	.	.	.	.	.
8c	in	.	.	.	.	.	.	.	.	.
8B-	the	.	.	.	.	.	.	.	.	.
=71	=71	=71	=71	=71	=71	=71	=71	=71	=71	=71
8A	mar-	1r	.	1r	1FMm	.	voice	.	148.302	F:7
8c	-ket	.	.	.	.	.	.	.	.	.
8r	.	.	.	.	.	.	.	.	.	.
4.c	place	.	.	.	.	.	.	A	.	.
8r	.	.	.	.	.	.	.	.	.	.
[8e-	Mo-	.	.	.	.	.	.	.	.	.
=72	=72	=72	=72	=72	=72	=72	=72	=72	=72	=72
8e-]	_	1r	.	1r	1FMm	newline	voice	.	150.459	F:7
8e-	-lly	.	.	.	.	.	.	.	.	.
8e-	lets	.	.	.	.	.	.	.	.	.
8e-	the	.	.	.	.	.	.	.	.	.
8e-	chil-	.	.	.	.	.	.	.	.	.
8e-	-dren	.	.	.	.	.	.	.	.	.
8d	lend	.	.	.	.	.	.	.	.	.
8c	a	.	.	.	.	.	.	.	.	.
=73	=73	=73	=73	=73	=73	=73	=73	=73	=73	=73
4B-	hand	1r	.	1r	1B-M	.	voice	B	152.587	B-:maj
4r	.	.	.	.	.	.	.	.	.	.
4r	.	.	.	.	.	.	.	.	.	.
8r	.	.	.	.	.	.	.	.	.	.
[8f	Des-	.	.	.	.	.	.	.	.	.
=74	=74	=74	=74	=74	=74	=74	=74	=74	=74	=74
8f]	_	1r	.	1r	1B-M	newline	voice	.	154.715	B-:maj
8f	-mond	.	.	.	.	.	.	.	.	.
8f	stays	.	.	.	.	.	.	.	.	.
8f	at	.	.	.	.	.	.	.	.	.
8f	home	.	.	.	.	.	.	.	.	.
8f	and	.	.	.	.	.	.	.	.	.
8e-	does	.	.	.	.	.	.	.	.	.
8d	his	.	.	.	.	.	.	.	.	.
=75	=75	=75	=75	=75	=75	=75	=75	=75	=75	=75
8e-	pre-	1r	.	1r	1E-M	.	voice	.	156.847	E-:maj
8f	-tty	.	.	.	.	.	.	.	.	.
8r	.	.	.	.	.	.	.	.	.	.
4g	face	.	.	.	.	.	.	A	.	.
8g	And	.	.	.	.	.	.	.	.	.
8f	in	.	.	.	.	.	.	.	.	.
8e-	the	.	.	.	.	.	.	.	.	.
=76	=76	=76	=76	=76	=76	=76	=76	=76	=76	=76
8d	eve-	1r	.	1r	2B-M	newline	voice	.	158.98	B-:maj
8d	-ning	.	.	.	.	.	.	.	.	.
8e-	she's	.	.	.	.	.	.	.	.	.
8d	a	.	.	.	.	.	.	.	.	.
8c	sing-	.	.	.	2FMm	.	voice	.	160.041	F:7
8e-	-er	.	.	.	.	.	.	.	.	.
8d	with	.	.	.	.	.	.	.	.	.
16c	the	.	.	.	.	.	.	.	.	.
[16B-	band	.	.	.	.	.	.	B	.	.
=77	=77	=77	=77	=77	=77	=77	=77	=77	=77	=77
4B-]	_	2r	.	8r	1B-M	.	voice	.	161.101	B-:maj
.	.	.	.	8B-	.	.	.	.	.	.
8r	.	.	.	4d	.	.	.	.	.	.
8f	Yeah!	.	.	.	.	.	.	.	.	.
8r	.	8r	.	8f	.	.	.	.	.	.
8f	Ob-	8B-	Ob-	4g	.	.	.	.	.	.
8f	-la-	8d	-la-	.	.	.	.	c	.	.
8f	-di	8f	-di	[8b-	.	.	.	.	.	.
=78	=78	=78	=78	=78	=78	=78	=78	=78	=78	=78
*>Letter>C2	*>Letter>C2	*>Letter>C2	*>Letter>C2	*>Letter>C2	*>Letter>C2	*>Letter>C2	*>Letter>C2	*>Letter>C2	*>Letter>C2	*>Letter>C2
*>Label>Chorus	*>Label>Chorus	*>Label>Chorus	*>Label>Chorus	*>Label>Chorus	*>Label>Chorus	*>Label>Chorus	*>Label>Chorus	*>Label>Chorus	*>Label>Chorus	*>Label>Chorus
8r	.	8r	.	8b-]	1B-M	newline	voice	.	163.222	B-:maj
8f	Ob-	8B-	Ob-	8b-	.	.	.	.	.	.
8f	-la-	8d	-la-	4cc	.	.	.	c	.	.
8f	-da	8f	-da	.	.	.	.	C	.	.
8r	.	8r	.	8dd	.	.	.	.	.	.
8B-	Life	8B-	Life	8b-	.	.	.	.	.	.
8d	goes	8d	goes	8r	.	.	.	.	.	.
[8f	on	[8f	on	[8cc	.	.	.	C	.	.
=79	=79	=79	=79	=79	=79	=79	=79	=79	=79	=79
4.f]	_	4.f]	_	8cc]	2Dm	.	voice	.	164.671	D:min/b3
.	.	.	.	8b-	.	.	.	.	.	.
.	.	.	.	4a	.	.	.	.	.	.
4.b-	bra	4.b-	bra	.	.	.	.	C	.	.
.	.	.	.	8b-	2Gm	.	voice	.	166.12	G:min
.	.	.	.	8g	.	.	.	.	.	.
8r	.	8r	.	8r	.	.	.	.	.	.
[8f	La	[8f	La	[8B-	.	.	.	C	.	.
=80	=80	=80	=80	=80	=80	=80	=80	=80	=80	=80
8f]	_	8f]	_	8B-]	2B-M	newline	voice	.	167.569	B-:maj
16e-	la	16e-	la	8B-	.	.	.	c	.	.
16d	_	16d	_	.	.	.	.	.	.	.
8d	how	8d	how	4d	.	.	.	.	.	.
8e-	the	8e-	the	.	.	.	.	.	.	.
8d	life	8d	life	8f	2FM	.	voice	.	168.628	F:maj
8c	goes	8c	goes	8f	.	.	.	.	.	.
8B-	_	8B-	_	8r	.	.	.	.	.	.
[8B-	on	[8B-	on	8B-	.	.	.	C	.	.
=81	=81	=81	=81	=81	=81	=81	=81	=81	=81	=81
8B-]	_	8B-]	_	8r	1B-M	.	voice	.	169.687	B-:maj
8r	.	8r	.	8B-	.	.	.	.	.	.
8r	.	4r	.	4d	.	.	.	.	.	.
4f	Hey!	.	.	.	.	.	.	.	.	.
.	.	8r	.	8f	.	.	.	.	.	.
8f	Ob-	8B-	Ob-	4g	.	.	.	.	.	.
8f	-la-	8d	-la-	.	.	.	.	c	.	.
8f	-di	8f	-di	[8b-	.	.	.	.	.	.
=82	=82	=82	=82	=82	=82	=82	=82	=82	=82	=82
8r	.	8r	.	8b-]	1B-M	newline	voice	.	171.804	B-:maj
8f	Oob-	8B-	Ob-	8b-	.	.	.	.	.	.
8f	-la-	8d	-la-	4cc	.	.	.	c	.	.
4f	-da	8f	-da	.	.	.	.	C	.	.
.	.	8r	.	8dd	.	.	.	.	.	.
8B-	Life	8B-	Life	8b-	.	.	.	.	.	.
8d	goes	8d	goes	8r	.	.	.	.	.	.
[8f	on	[8f	on	[8cc	.	.	.	C	.	.
=83	=83	=83	=83	=83	=83	=83	=83	=83	=83	=83
4.f]	_	4.f]	_	8cc]	2Dm	.	voice	.	173.215	D:min/b3
.	.	.	.	8b-	.	.	.	.	.	.
.	.	.	.	4a	.	.	.	.	.	.
4b-	bra	4b-	bra	.	.	.	.	C	.	.
.	.	.	.	8b-	2Gm	.	voice	.	174.626	G:min
8r	.	8r	.	8g	.	.	.	.	.	.
8r	.	8r	.	8r	.	.	.	.	.	.
[8f	La	[8f	La	[8B-	.	.	.	C	.	.
=84	=84	=84	=84	=84	=84	=84	=84	=84	=84	=84
8f]	_	8f]	_	8B-]	2B-M	newline	voice	.	176.037	B-:maj
16e-	la	16e-	la	8B-	.	.	.	c	.	.
16d	_	16d	_	.	.	.	.	.	.	.
8d	how	8d	how	4d	.	.	.	.	.	.
8e-	the	8e-	the	.	.	.	.	.	.	.
8d	life	8d	life	8f	2FM	.	voice	.	177.108	F:maj
8c	goes	8c	goes	8f	.	.	.	.	.	.
8B-	_	8B-	_	8r	.	.	.	.	.	.
[8B-	on	[8B-	on	8B-	.	.	.	C	.	.
=85	=85	=85	=85	=85	=85	=85	=85	=85	=85	=85
8B-]	_	8B-]	_	1r	1Gm	.	voice	.	178.179	G:min
8r	.	8r	.	.	.	.	.	.	.	.
4r	.	4r	.	.	.	.	.	.	.	.
4r	.	2r	.	.	.	.	.	.	.	.
16r	.	.	.	.	.	.	.	.	.	.
16g	And	.	.	.	.	.	.	.	.	.
16g	if	.	.	.	.	.	.	.	.	.
16g	you	.	.	.	.	.	.	.	.	.
=86	=86	=86	=86	=86	=86	=86	=86	=86	=86	=86
*>Letter>E	*>Letter>E	*>Letter>E	*>Letter>E	*>Letter>E	*>Letter>E	*>Letter>E	*>Letter>E	*>Letter>E	*>Letter>E	*>Letter>E
*>Label>Coda	*>Label>Coda	*>Label>Coda	*>Label>Coda	*>Label>Coda	*>Label>Coda	*>Label>Coda	*>Label>Coda	*>Label>Coda	*>Label>Coda	*>Label>Coda
8b-	want	1r	.	1r	1Gm	newline	voice	.	180.321	G:min
8b-	some	.	.	.	.	.	.	.	.	.
16g	fun	.	.	.	.	.	.	.	.	.
16b-	_	.	.	.	.	.	.	.	.	.
8r	.	.	.	.	.	.	.	.	.	.
4.r	.	.	.	.	.	.	.	.	.	.
8g	Sing	.	.	.	.	.	.	.	.	.
=87	=87	=87	=87	=87	=87	=87	=87	=87	=87	=87
8f	Ob-	1r	.	1r	2FM	.	voice	.	182.493	F:maj
8e-	-La-	.	.	.	.	.	.	c	.	.
8d	-Di	.	.	.	.	.	.	.	.	.
8c	Bla-	.	.	.	.	.	.	C	.	.
4B-	-Da	.	.	.	2B-M	.	voice	C	183.58	B-:maj
4r	.	.	.	.	.	.	.	.	.	.
=88	=88	=88	=88	=88	=88	=88	=88	=88	=88	=88
r;	.	r;	.	r;	1B-M;	.	voice	.	184.666	B-:maj
r;	.	r;	.	r;	1r;	.	r	.	189.011	N.C.
*-	*-	*-	*-	*-	*-	*-	*-	*-	*-	*-
!!!BillboardChartDate: 1976/12/11
!!!BillboardPeak: 49
!!!BillboardWeeksOnChart: 7
!!!COC: The Beatles
!!!EMD: Second and Third choruses had rhythmic mistake 1Dm 1Gm (instead of 2Dm 2Gm). Fixed. -Nat
!!!ENC: Nathaniel Condit-Schultz
!!!EST: Awating manual error checking and editing.
!!!OTL: Ob-La-Di, Ob-La-Da
!!!RDF**chordsym: original McGill chord annotation + (implied pitch class set, with bass pitch in first position)
!!!RDF**harmony: **recip + pitch class of root + harmonic quality
!!!RDF**leadinstrument: original McGill primary instrumentation annotation
!!!RDF**phrase: newline = linebreak in original McGill transcription
!!!RDF**timestamp: McGill audio timestamp in seconds
!!!RDT: 2017/01/12/
!!!SampleActualRank: 49
!!!SampleID#: 1107
!!!SampleTargetRank: 49
